packages/core/src/svgs/build.svg

<svg width="24" height="24" viewBox="0 0 24 24" fill="none" xmlns="http://www.w3.org/2000/svg">
<g clip-path="url(#clip0_31_7599)">
<path d="M0 0H24V24H0V0Z" fill="url(#paint0_linear_31_7599)"/>
<path fill-rule="evenodd" clip-rule="evenodd" d="M14.1428 12.4756V11.1128C14.1428 10.6542 13.2814 10.2856 12.2142 10.2856C11.1471 10.2856 10.2856 10.6542 10.2856 11.1128V12.4756C10.3071 12.9256 11.1642 13.2856 12.2142 13.2856C13.2642 13.2856 14.1214 12.9256 14.1428 12.4756ZM11.9999 12.8956V12.1199C12.9342 12.2056 13.5728 11.8885 13.7142 11.7171V12.4756C13.2642 12.9085 12.3428 12.9342 11.9999 12.8956ZM12.2142 11.7299C13.0114 11.7299 13.6585 11.4814 13.6585 11.1771C13.6585 10.8771 13.0156 10.6242 12.2142 10.6242C11.4171 10.6242 10.7699 10.8728 10.7699 11.1814C10.7699 11.4814 11.4128 11.7299 12.2142 11.7299Z" fill="white"/>
<path fill-rule="evenodd" clip-rule="evenodd" d="M18.4287 9.39836C18.4287 8.93979 17.5673 8.57122 16.5001 8.57122C16.003 8.57122 15.5487 8.65265 15.2059 8.7855L14.143 8.36122V7.68408C14.143 7.22551 13.2816 6.85693 12.2144 6.85693C11.1473 6.85693 10.2859 7.22551 10.2859 7.68408V8.23265L9.043 8.72122C8.68076 8.61766 8.30543 8.56714 7.92871 8.57122C6.86157 8.57122 6.00014 8.93979 6.00014 9.39836V9.91265L3.42871 10.9155V13.2469L12.0644 16.7141L20.5716 13.4055V10.9155L18.4287 10.0669V9.39836ZM14.143 9.04693C14.1216 9.49693 13.2644 9.85693 12.2144 9.85693C11.1644 9.85693 10.3073 9.49693 10.2859 9.04693V8.62693L9.50585 8.92265C9.72871 9.0555 9.85728 9.22265 9.85728 9.39836V10.7612C9.83585 11.2112 8.97871 11.5712 7.92871 11.5712C6.87871 11.5712 6.02157 11.2112 6.00014 10.7612V10.2469L4.17871 10.9326L12.013 13.9669L19.963 10.9326L18.4287 10.3626V10.7612C18.4073 11.2112 17.5501 11.5712 16.5001 11.5712C15.4501 11.5712 14.593 11.2112 14.5716 10.7612V9.39836C14.5716 9.25693 14.653 9.12836 14.7944 9.01265L14.143 8.76836V9.04693ZM12.4287 14.2841V16.1569L20.143 13.1998V11.2669L12.4287 14.2841ZM13.6587 7.74836C13.6587 8.05265 13.0159 8.3055 12.2144 8.3055C11.4173 8.3055 10.7701 8.05265 10.7701 7.74836C10.7701 7.44836 11.413 7.19551 12.2144 7.19551C13.0116 7.19551 13.6587 7.44408 13.6587 7.75265V7.74836ZM12.0001 8.69122V9.46265C12.343 9.5055 13.2644 9.47979 13.7144 9.04693V8.28836C13.573 8.45979 12.9344 8.77693 12.0001 8.69122ZM9.373 9.46265C9.373 9.76693 8.73014 10.0198 7.92871 10.0198C7.13157 10.0198 6.48443 9.76693 6.48443 9.46265C6.48443 9.16265 7.12728 8.90979 7.92871 8.90979C8.72585 8.90979 9.373 9.15836 9.373 9.46693V9.46265ZM7.71442 10.4055V11.1769C8.05728 11.2198 8.97871 11.1941 9.42871 10.7612V10.0026C9.28728 10.1741 8.64871 10.4912 7.71442 10.4055ZM17.9444 9.46265C17.9444 9.76693 17.3016 10.0198 16.5001 10.0198C15.703 10.0198 15.0559 9.76693 15.0559 9.46265C15.0559 9.16265 15.6987 8.90979 16.5001 8.90979C17.2973 8.90979 17.9444 9.15836 17.9444 9.46693V9.46265ZM16.2859 10.4055V11.1769C16.6287 11.2198 17.5501 11.1941 18.0001 10.7612V10.0026C17.8587 10.1741 17.2201 10.4912 16.2859 10.4055Z" fill="white"/>
</g>
<defs>
<linearGradient id="paint0_linear_31_7599" x1="4.46571" y1="4.16143" x2="29.2071" y2="32.58" gradientUnits="userSpaceOnUse">
<stop stop-color="#1A1E21"/>
<stop offset="1" stop-color="#06060A"/>
</linearGradient>
<clipPath id="clip0_31_7599">
<rect width="24" height="24" fill="white"/>
</clipPath>
</defs>
</svg>

<svg xmlns="http://www.w3.org/2000/svg" width="24" height="24" fill="none" viewBox="0 0 24 24"><g clip-path="url(#a)"><path fill="url(#b)" d="M0 0h24v24H0z"/><path fill="#fff" fill-rule="evenodd" d="M14.143 12.476v-1.363c0-.459-.862-.827-1.929-.827s-1.928.368-1.928.827v1.363c.021.45.878.81 1.928.81s1.907-.36 1.929-.81m-2.143.42v-.776c.934.086 1.573-.231 1.714-.403v.759c-.45.432-1.371.458-1.714.42m.214-1.166c.797 0 1.444-.249 1.444-.553 0-.3-.642-.553-1.444-.553-.797 0-1.444.249-1.444.557 0 .3.643.549 1.444.549" clip-rule="evenodd"/><path fill="#fff" fill-rule="evenodd" d="M18.429 9.398c0-.458-.862-.827-1.929-.827-.497 0-.951.082-1.294.215l-1.063-.425v-.677c0-.458-.861-.827-1.929-.827-1.067 0-1.928.369-1.928.827v.549l-1.243.488a3.9 3.9 0 0 0-1.114-.15C6.862 8.571 6 8.94 6 9.398v.515L3.43 10.915v2.332l8.635 3.467 8.508-3.308v-2.49l-2.143-.85zm-4.286-.351c-.021.45-.879.81-1.929.81s-1.907-.36-1.928-.81v-.42l-.78.296c.223.133.351.3.351.475v1.363c-.021.45-.878.81-1.928.81s-1.907-.36-1.929-.81v-.514l-1.821.686 7.834 3.034 7.95-3.034-1.534-.57v.398c-.022.45-.879.81-1.929.81s-1.907-.36-1.928-.81V9.398c0-.141.081-.27.222-.385l-.651-.245zm-1.714 5.237v1.873l7.714-2.957v-1.933zm1.23-6.536c0 .305-.643.558-1.445.558-.797 0-1.444-.253-1.444-.558 0-.3.643-.552 1.444-.552.798 0 1.445.248 1.445.557zM12 8.691v.772c.343.043 1.264.017 1.714-.416v-.759c-.141.172-.78.489-1.714.403m-2.627.772c0 .304-.643.557-1.444.557-.797 0-1.445-.253-1.445-.557 0-.3.643-.553 1.445-.553.797 0 1.444.248 1.444.557zm-1.659.943v.77c.343.044 1.265.018 1.715-.415v-.758c-.142.171-.78.488-1.715.402m10.23-.943c0 .304-.642.557-1.444.557-.797 0-1.444-.253-1.444-.557 0-.3.643-.553 1.444-.553.797 0 1.444.248 1.444.557zm-1.658.943v.77c.343.044 1.264.018 1.714-.415v-.758c-.141.171-.78.488-1.714.402" clip-rule="evenodd"/></g><defs><linearGradient id="b" x1="4.466" x2="29.207" y1="4.161" y2="32.58" gradientUnits="userSpaceOnUse"><stop stop-color="#1A1E21"/><stop offset="1" stop-color="#06060A"/></linearGradient><clipPath id="a"><path fill="#fff" d="M0 0h24v24H0z"/></clipPath></defs></svg>
